X:55
%%etbk:tnset id:19,pos:2,rep:3x,ant:
%%etbk:wsite http://www.thesession.org/tunes/display/2083
%%etbk:color #ffffcc
%%etbk:pldat 2016-09-17T14:32,2016-09-10T16:32,2016-09-06T16:18,2016-08-09T17:51,2016-08-02T15:26,2016-07-23T16:01,2016-07-18T19:33,2016-07-15T16:19,2016-07-12T16:31,2016-07-09T13:30,2016-06-13T17:31,2016-06-12T14:38,2016-05-30T19:01,2016-05-25T16:24,2016-05-24T17:09,2016-05-16T16:38,2016-05-15T16:16,2016-05-14T17:26,2016-05-12T19:18,2016-05-09T19:35,2016-05-04T17:07,2016-05-03T18:37,2015-08-15T16:25,2015-07-07T17:02,2015-03-25T18:18,2015-03-23T18:23,2015-01-31T16:41,2014-12-15T16:38,2014-09-21T11:45,2014-05-20T16:32,2014-05-01T18:10,2014-02-12T19:24,2013-12-09T18:50,2013-12-04T18:08,2013-11-27T17:35,2013-11-25T19:40,2013-11-24T15:30,2013-05-22T16:23,2013-05-15T17:13
T: Paddy Lynn's Delight
T: Sonny's Return
Z: Piano Box Version by Martin Fleischmann
H: Created 2013-02-19 /  Last Modified 2016-05-09
M: 4/4
L: 1/8
R: reel
K: Ador
"am"!5!e!1!AAB !3!cB!1!A!2!G | "G"!1!E2G!2!G !3!AGE!4!d | "am"!5!e!1!AAB !3!cBAB | !3!c!4!d!2!eg !5!aged |
"am"!4!{g}!2!e!1!AAB !3!cB!1!A!2!G | "G"!1!E2!2!GG !3!AGG!1!G | "am"!3!c!4!d!2!eg !5!age!1!d |1 "em"!3!c!1!A!2!B!1!G "am"!1!A4:|2 "em"cABG "am"A3!2!B|
|:"C"!1!c2!3!ec !4!gc!3!ed | !1!cc!3!eg !5!ag!3!e!2!d | !1!c2!3!ec !4!gc!3!e!1!c | "G"!4!d2ed !3!c!1!AA!2!B |
"C"!1!c2!3!ec !4!gc!3!e!2!d | !1!cc!3!eg !5!a!4!g!2!e!1!d | "am"!2!e2!5!ag !2!eee!1!d |1 "em"!3!c!1!A!2!B!1!G "am"!1!A3!2!B |2 "em"!3!c!1!A!2!B!1!G "am"!1!A4||
| "var bar 6""G"!1!E2G!2!G !3!AGE!4!B |


